src/pos-icons/printer-3d-nozzle-alert.svg

<svg height="24" viewBox="0 0 24 24" width="24" xmlns="http://www.w3.org/2000/svg"><path d="m7 2h10v6h2v5h-2.5l-3.5 4h-2l-3.5-4h-2.5v-5h2zm3 20h-8v-2h8c.55 0 1-.45 1-1v-1h2v1c0 1.66-1.34 3-3 3m11-10v-5h2v5zm0 4v-2h2v2z"/></svg>

<?xml version="1.0" encoding="UTF-8"?><!DOCTYPE svg PUBLIC "-//W3C//DTD SVG 1.1//EN" "http://www.w3.org/Graphics/SVG/1.1/DTD/svg11.dtd"><svg xmlns="http://www.w3.org/2000/svg" xmlns:xlink="http://www.w3.org/1999/xlink" version="1.1" id="mdi-printer-3d-nozzle-alert" width="24" height="24" viewBox="0 0 24 24"><path d="M7 2H17V8H19V13H16.5L13 17H11L7.5 13H5V8H7V2M10 22H2V20H10C10.55 20 11 19.55 11 19V18H13V19C13 20.66 11.66 22 10 22M21 12V7H23V12H21M21 16V14H23V16H21Z" /></svg>
